X:1
T:Star Spangled Banner
T:Star Spangled Banner
%%score 1 2 3
L:1/8
Q:1/4=80
M:3/4
K:C
V:1 treble-8 nm="Tenor" snm="T."
V:2 treble nm="Alto" snm="A."
V:3 bass nm="Bass" snm="B."
V:1
 z4 G>E | G2 G2 A2 | B2 c2 e>d | c2 E2 ^F2 | G4 GG | C3 D E2 | B4 A>B | c2 c2 G2 | E2 C4 | z4 C>D | %10
w: Oh- *|say can you|see- * by the|dawn's ear- ly|light. What so|proud- ly we|hailed at the|twi- lights last|gleam- *|Who's broad|
 E2 c2 B2 | A4 e>d | c2 E2 ^F2 | G6 | z2 ed c2 | B4 A>B | E2 F2 G2 | G2 G4 | z2 z2 e>e | d2 c2 B2 | %20
w: stripes and bright|stars through the|per- i- lous|fight.|Ram- parts we|watched were so|gal- ant- ly|stream- ing|And the|ro- ckets red|
 e2 d2 f>e | d2 c2 G2 | G4 F2 | E2 G2 c2 | e2 d2 A>G | F2 F2 D2 | G4 G2 | C2 C2 E2 | F2 F2 F2 | %29
w: glare- * the bombs|Bur- sting in|air- gave|proof through the|night- * that our|flag was still|there. Oh|say does that|star spang- led|
 E2 E2 C2 | G3 z GG | c3 d ef | g6- | g2 z2 Gd | e3 f d2 | c2 G2 _B2 | c2 A2 F2 | _A2 G2 G2- | %38
w: ban- ner yet|wave O'er the|land- * of the|free|* and the|home of the|brave home of|the home of|the br- ave|
 G4- G2 |] %39
w: |
V:2
 z4 G>E | C2 E2 G2 | c4 B2 | A2 G2 E2 | D4 DD | E3 D C2 | G4 c>B | A2 A2 G2 | E2 G4 | z4 G>E | %10
w: Oh- *|say can you|see by|dawn's ear- ly|light. What so|proud- ly we|hailed at the|twi- light's last|gleam- *|Who's broad|
 C2 E2 G2 | F2 E2 D>C | D2 E2 G2 | E2 D2 GG | c2 c2 G2 | A4 E>G | c2 c2 G2 | E2 C4 | z2 z2 E>E | %19
w: stripes and bright|stars- * through the|per- i- lous|fight.- * O'er the|ram- parts we|watched were so|gal- ant- ly|stream- ing.|And the|
 E2 F2 G2 | G4 C>C | G2 E2 D2 | E4 F2 | E3 D C2 | G4 A>B | c2 E2 ^F2 | G4 G2 | c2 c2 B2 | %28
w: ro- ckets red|glare the bombs|bur- sting in|air gave|proof through the|night that our|flag was still|there.- Oh|say does that|
 A2 A2 _A2 | G2 G2 E2 | D3 z GG | _A4 =A2 | Bc d4- | d2 z2 B2 | c3 d B2 | c2 C2 _E2 | G2 c2 =A2 | %37
w: star spang- led|ban- ner yet|wave O'er the|land of|the- * free|* and|home of the|brave home of|the home of|
 _A2 G2 E2- | E4- E2 |] %39
w: the br- ave||
V:3
 z4 G,>E, | C,2 C,2 B,,2 | A,,4 A,,2 | F,,2 F,,2 A,,2 | G,,4 G,,G,, | A,,3 B,, C,2 | %6
w: Oh- *|say can you|see by|dawn's ear- ly|light. What so|prou- dly we|
 G,,2 B,,2 E,2 | F,2 F,2 F,2 | G,,2 E,4 | z4 E,>D, | C,2 C,2 D,2 | A,,2 C,2 E,2 | F,2 F,2 A,,2 | %13
w: hailed at the|twi- lights last|gleam- *|Who's broad|stripes and bright|stars through the|per- i- lous|
 G,,2 D,2 G,G, | C,2 C,2 E,2 | B,,4 E,2 | A,,2 A,,2 B,,2 | E,2 C,4 | z2 z2 C,>C, | C,2 D,2 E,2 | %20
w: fight.- * O'er- the|ram- parts we|watched were|gal- ant- ly|stream- ing.|And the|ro- ckets red|
 E,4 D,>C, | B,,2 C,2 D,2 | D,4 E,2 | C,2 E,2 G,2 | F,4 F,>G, | G,2 E,2 A,,2 | D,4 D,2 | %27
w: glare the bombs|bur- sting in|air gave|proof through the|night that our|flag was still|there. Oh|
 G,,2 A,,2 B,,2 | C,2 B,,2 E,2 | D,2 D,2 G,,2 | D,3 z G,G, | F,3 F, F,E, | D,6- | D,2 z2 C,D, | %34
w: say does that|star spang- led|ban- ner yet|wave O'er the|la- nd of the|free|* and the|
 E,3 G, B,2 | C2 F,2 _E,2 | D,2 C,2 _B,,2 | _A,,2 D,2 C,2- | C,4- C,2 |] %39
w: home of the|brave home of|the home of|the br- ave||

